X:1
T: Silent Night 
L: 1/8
M:3/4
K:D
R: Christmas
"D"A3 B A2 | F6 | A3 B A2 | F6 | "A"e4 e2 | c6 | "D"d4 d2 | A6 | 
"G"B4 B2 | d3 c B2 | "D"A3 B A2 | F6 | "G"B4 B2 | d3 c B2 |"D" A3 B A2 | F6 | 
"A"e4 e2 | g3 e c2 | "D"d6 | f6 | d2 A2 F2 | "A"A3 G E2 | "D"D6  |]

